X:1
T:©
T:©
Z:©
%%score 1 2 3
L:1/8
Q:1/4=120
M:6/8
K:D
V:1 treble nm="Clarinet"
V:2 treble nm="Clarinet"
V:3 bass nm="Cello"
V:1
 z3 z2 D | A2 A B>cd | c2 A F2 E | D2 E F2 G | A>BA G2 F | E3- E2 E | F2 E D2 E | F2 G A2 A | %8
w: A-|cross the pla- ins one|Chri- stmas night three|dro- vers ri- ding|Bli- i- i- ith and|gay- * Looked|up and saw a|star- ry light more|
 B2 A G2 A | B2 c d2 d | c2 A B2 B | A2 F G2 G | F2 G A2 B |[M:9/8] c>de A3- A2 A | %14
w: ra- diant than the|mil- ky way and|on their hearts such|won- der fell they|sang with jog no-|e- el no- el _ no|
[M:6/8] D>EF E>DE | D6 |] %16
w: e- el no- el no- el|_|
V:2
 z3 z2 D | F2 F F2 F | F2 F D2 C | D2 C D2 D | D3 E2 D | D2 B, C2 C | D2 C D2 C | D2 D D2 D | %8
 D2 D D2 D | D2 E F2 F | F2 A G2 G | D2 _E =E2 C | D2 D D2 D |[M:9/8] A2 A A2 G F2 E | %14
[M:6/8] D2 C B,2 C | D6 |] %16
V:3
 z3 z2 D, | D2 C B,2 B, | A,2 F, G,2 A, | F,2 E, D,2 E, | F,3 E,2 D, | A,,3- A,,2 A,, | %6
 D,2 A,, B,,2 A,, | D,2 E, F,2 F, | D,2 D, D,2 D, | E,2 F, B,2 B, | A,2 F, G,2 G, | %11
 F,2 B,, E,2 A,, | D,2 E, F,2 G, |[M:9/8] A,2 G, F,2 E, D,2 C, |[M:6/8] B,,2 A,, G,,2 A,, | D,6 |] %16

